healthcode/jkb/static/whicon-s.svg

<svg height="29" viewBox="0 0 29 29" width="29" xmlns="http://www.w3.org/2000/svg"><g fill="none" fill-rule="evenodd" opacity=".65" transform="translate(.963731 .700001)"><path d="m0 0h28v28h-28z" fill="none"/><path d="m14.003325 18.2959c-.5012438 0-.9999938.20615-1.3549375.5602625-.3549438.3541125-.5610938.8520313-.5610938 1.3524438s.20615.9991625.5610938 1.3524437c.3541125.3541125.8528625.5602625 1.3549375.5602625s.9999937-.20615 1.3549375-.5602625c.3541125-.3541125.5610937-.8520312.5610937-1.3524437s-.20615-.9991625-.5610937-1.3524438c-.3541125-.3541125-.8528625-.5602625-1.3549375-.5602625zm-.01995-12.0547875c-1.2917625 0-2.3358125.395675-3.1313188 1.1853625-.7955062.79135-1.2593437 1.88111875-1.28511245 2.8852688-.02576875 1.00415 2.09474995.7955062 2.17288745.3000812.083125-.52535.4305875-1.37405625.8354063-1.75809375.4048187-.3840375.9093875-.5768875 1.5112125-.5768875.6251 0 1.1221875.1845375 1.4904313.5536125.3682437.369075.5536125.8129625.5536125 1.33000005 0 .3732312-.1047375.714875-.3117188 1.0249312-.1346625.196175-.548625.6101375-1.2385625 1.2427188-.6899375.6325812-1.1521125 1.2019875-1.3815375 1.7073875s-.3458 1.15045-.3458 1.93515c0 .0748125.0024938.2876125.0083125.635075h2.1504438c-.0116375-.7331625.0440562-1.2427188.1645875-1.5270063.1205312-.2851187.4305875-.661675.9293375-1.1288375.96425-.9035687 1.5943375-1.619275 1.8894312-2.1429625.2942625-.5245187.4405625-1.0822875.4405625-1.6699812 0-1.06233755-.4006625-1.9941688-1.2053125-2.79466255s-1.885275-1.20115625-3.2452-1.20115625zm.016625-5.5411125c-7.33079375 0-13.3 5.96588125-13.3 13.3008313 0 7.33495 5.96754375 13.2991687 13.3 13.2991687 7.3332875 0 13.3-5.9642187 13.3-13.2991687 0-7.33495005-5.96505-13.3008313-13.3-13.3008313zm-.0083125 24.9092375c-6.4122625 0-11.62669375-5.2152625-11.62669375-11.6233687 0-6.41226255 5.2152625-11.62586255 11.62669375-11.62586255 6.4114313 0 11.6283563 5.21276875 11.6283563 11.62586255.0008312 6.4089375-5.2160938 11.6233687-11.6283563 11.6233687z" fill="#9c9c9c" fill-rule="nonzero"/></g></svg>

<?xml version="1.0" encoding="UTF-8"?>
<svg width="29px" height="29px" viewBox="0 0 29 29" version="1.1" xmlns="http://www.w3.org/2000/svg" xmlns:xlink="http://www.w3.org/1999/xlink">
    <title>问号icon-s</title>
    <g id="页面-1" stroke="none" stroke-width="1" fill="none" fill-rule="evenodd" opacity="0.649999976">
        <g id="画板" transform="translate(-651.000000, -854.000000)">
            <g id="问号icon" transform="translate(651.963731, 854.700001)">
                <rect id="矩形" fill-opacity="0" fill="#D8D8D8" x="0" y="0" width="28" height="28"></rect>
                <path d="M14.003325,18.2959 C13.5020812,18.2959 13.0033312,18.50205 12.6483875,18.8561625 C12.2934437,19.210275 12.0872937,19.7081938 12.0872937,20.2086063 C12.0872937,20.7090188 12.2934437,21.2077688 12.6483875,21.56105 C13.0025,21.9151625 13.50125,22.1213125 14.003325,22.1213125 C14.5054,22.1213125 15.0033187,21.9151625 15.3582625,21.56105 C15.712375,21.2069375 15.9193562,20.7090188 15.9193562,20.2086063 C15.9193562,19.7081938 15.7132062,19.2094438 15.3582625,18.8561625 C15.00415,18.50205 14.5054,18.2959 14.003325,18.2959 Z M13.983375,6.2411125 C12.6916125,6.2411125 11.6475625,6.6367875 10.8520562,7.426475 C10.05655,8.217825 9.5927125,9.30759375 9.56694375,10.3117438 C9.541175,11.3158938 11.6616937,11.10725 11.7398312,10.611825 C11.8229562,10.086475 12.1704187,9.23776875 12.5752375,8.85373125 C12.9800562,8.46969375 13.484625,8.27684375 14.08645,8.27684375 C14.71155,8.27684375 15.2086375,8.46138125 15.5768813,8.83045625 C15.945125,9.19953125 16.1304938,9.64341875 16.1304938,10.1604563 C16.1304938,10.5336875 16.0257563,10.8753313 15.818775,11.1853875 C15.6841125,11.3815625 15.27015,11.795525 14.5802125,12.4281063 C13.890275,13.0606875 13.4281,13.6300938 13.198675,14.1354938 C12.96925,14.6408938 12.852875,15.2859438 12.852875,16.0706438 C12.852875,16.1454563 12.8553688,16.3582563 12.8611875,16.7057188 L15.0116313,16.7057188 C14.9999938,15.9725563 15.0556875,15.463 15.1762188,15.1787125 C15.29675,14.8935938 15.6068063,14.5170375 16.1055563,14.049875 C17.0698063,13.1463063 17.6998938,12.4306 17.9949875,11.9069125 C18.28925,11.3823938 18.43555,10.824625 18.43555,10.2369313 C18.43555,9.17459375 18.0348875,8.2427625 17.2302375,7.44226875 C16.4255875,6.641775 15.3449625,6.2411125 13.9850375,6.2411125 L13.983375,6.2411125 Z M14,0.7 C6.66920625,0.7 0.7,6.66588125 0.7,14.0008313 C0.7,21.3357813 6.66754375,27.3 14,27.3 C21.3332875,27.3 27.3,21.3357813 27.3,14.0008313 C27.3,6.66588125 21.33495,0.7 14,0.7 Z M13.9916875,25.6092375 C7.579425,25.6092375 2.36499375,20.393975 2.36499375,13.9858688 C2.36499375,7.57360625 7.58025625,2.36000625 13.9916875,2.36000625 C20.4031188,2.36000625 25.6200438,7.572775 25.6200438,13.9858688 C25.620875,20.3948063 20.40395,25.6092375 13.9916875,25.6092375 Z" id="形状" fill="#9C9C9C" fill-rule="nonzero"></path>
            </g>
        </g>
    </g>
</svg>
